polaris-icons/icons/PinUnfilledMajor.svg

<svg viewBox="0 0 20 20" xmlns="http://www.w3.org/2000/svg"><path fill-rule="evenodd" d="m8.763 6.48-1.108 4.988-1.17.032a.5.5 0 0 0-.485.5v.5a.5.5 0 0 0 .5.5h7a.5.5 0 0 0 .5-.5v-.5a.5.5 0 0 0-.485-.5l-1.17-.032-1.108-4.988.999-.539a.5.5 0 0 0 .264-.441v-.5a.5.5 0 0 0-.5-.5h-4a.5.5 0 0 0-.5.5v.5a.5.5 0 0 0 .264.441l1 .539zm4.184.782a2 2 0 0 0 1.053-1.762v-.5a2 2 0 0 0-2-2h-4a2 2 0 0 0-2 2v.5a2 2 0 0 0 1.053 1.762l-.609 2.739a2 2 0 0 0-1.944 1.999v.5a2 2 0 0 0 2 2h7a2 2 0 0 0 2-2v-.5a2 2 0 0 0-1.944-2l-.609-2.738z" fill="#5C5F62"/><path fill-rule="evenodd" d="M8.928 13.265a.75.75 0 0 1 .572-.265h1a.75.75 0 0 1 .74.873l-.5 3a.75.75 0 0 1-1.48 0l-.5-3a.75.75 0 0 1 .168-.608zm-2.178-3.265h2.5a.75.75 0 0 1 0 1.5h-2.5v-1.5z" fill="#5C5F62"/></svg>

<svg viewBox="0 0 20 20" xmlns="http://www.w3.org/2000/svg"><path fill-rule="evenodd" d="M8.763 6.48l-1.108 4.988-1.17.032A.5.5 0 006 12v.5a.5.5 0 00.5.5h7a.5.5 0 00.5-.5V12a.5.5 0 00-.485-.5l-1.17-.032-1.108-4.988.999-.539A.5.5 0 0012.5 5.5V5a.5.5 0 00-.5-.5H8a.5.5 0 00-.5.5v.5a.5.5 0 00.264.441l1 .539zm4.184.782A2 2 0 0014 5.5V5a2 2 0 00-2-2H8a2 2 0 00-2 2v.5a2 2 0 001.053 1.762l-.609 2.739A2 2 0 004.5 12v.5a2 2 0 002 2h7a2 2 0 002-2V12a2 2 0 00-1.944-2l-.609-2.738z" fill="#5C5F62"/><path fill-rule="evenodd" d="M8.928 13.265A.75.75 0 019.5 13h1a.75.75 0 01.74.873l-.5 3a.75.75 0 01-1.48 0l-.5-3a.75.75 0 01.168-.608zM6.75 10h2.5a.75.75 0 010 1.5h-2.5V10z" fill="#5C5F62"/></svg>
